public/fragezeichen.svg

<svg fill="none" height="223" viewBox="0 0 142 223" width="142" xmlns="http://www.w3.org/2000/svg"><path d="m109.1 8.89999-.85 1.81051.022.0103.023.0098zm22.5 18.00001 1.671-1.0992zm3 46.2-1.776-.9188-.013.0245-.012.0248zm-10.2 14.1-1.338-1.4866zm-15.9 12.6 1.119 1.658.029-.02.028-.021zm-17.7 14.7 1.4831 1.342.0155-.017.0151-.018zm-5.7 24v2h2v-2zm-43.2 0h-2v2h2zm4.2-33-1.8207-.828-.0059.013-.0057.013zm10.5-15.3 1.3379 1.4866.0039-.0035zm15.6-12.3-1.1094-1.6641-.0243.0162-.0238.0169zm13.2-10.5 1.4621 1.3646zm-1.5-23.7-1.2804 1.5364.0204.017.0207.0164zm-50.4 13.8-1.2225 1.5829 1.4803 1.1432 1.2397-1.4004zm-30.3-23.4-1.52353-1.2957-1.358298 1.5971 1.659378 1.2815zm79.8 139.8-1.4406 1.387.0261.027.0272.027zm0 38.4-1.4142-1.414zm-38.1 0-1.4406 1.387.0261.027.0272.027zm0-38.4 1.4142 1.414zm28.5-169.90001c13.7891 0 25.3821 2.26626 34.85 6.71051l1.7-3.62098c-10.1321-4.7558-22.3391-7.08953144-36.55-7.08953144zm34.895 6.73061c9.718 4.2763 16.885 10.0505 21.634 17.2686l3.342-2.1984c-5.251-7.9819-13.084-14.2077-23.366-18.73144zm21.634 17.2686c4.783 7.2697 7.171 15.2868 7.171 24.1008h4c0-9.586-2.612-18.369-7.829-26.2992zm7.171 24.1008c0 7.9602-1.456 14.6286-4.276 20.0812l3.552 1.8376c3.18-6.1474 4.724-13.479 4.724-21.9188zm-4.301 20.1305c-2.709 5.6112-5.964 10.0872-9.737 13.4829l2.676 2.9732c4.227-3.8043 7.772-8.7283 10.663-14.7171zm-9.737 13.4829c-3.929 3.5365-9.169 7.6914-15.738 12.4691l2.352 3.2345c6.631-4.8218 11.991-9.0669 16.062-12.7304zm-15.681 12.4289c-8.0637 5.4427-14.1283 10.4577-18.0946 15.0507l3.0273 2.614c3.6336-4.207 9.3693-8.992 17.3053-14.349zm-18.0641 15.0157c-4.1969 4.639-6.2169 10.651-6.2169 17.842h4c0-6.409 1.78-11.397 5.1831-15.158zm-6.2169 17.842v7.5h4v-7.5zm2 5.5h-43.2v4h43.2zm-41.2 2v-9.3h-4v9.3zm0-9.3c0-9.214 1.3741-16.822 4.0323-22.898l-3.6646-1.604c-2.9418 6.724-4.3677 14.916-4.3677 24.502zm4.0207-22.872c2.9235-6.432 6.2796-11.2776 10.0172-14.6414l-2.6758-2.9732c-4.2624 3.8362-7.9063 9.1906-10.9828 15.9586zm10.0211-14.6449c4.1257-3.7328 9.2598-7.7834 15.4157-12.1521l-2.315-3.262c-6.2441 4.4313-11.51 8.5806-15.7843 12.4479zm15.3676-12.119c6.0476-4.0317 10.5966-7.6322 13.5527-10.7995l-2.9242-2.7292c-2.6439 2.8327-6.8948 6.2322-12.8473 10.2005zm13.5527-10.7995c3.1721-3.3986 4.7379-7.5981 4.7379-12.4646h-4c0 3.9335-1.2342 7.134-3.6621 9.7354zm4.7379-12.4646c0-5.9317-2.1205-10.7433-6.4607-14.1698l-2.4786 3.1396c3.2598 2.5735 4.9393 6.1619 4.9393 11.0302zm-6.4196-14.1365c-4.0817-3.4013-9.701-4.9635-16.5804-4.9635v4c6.3206 0 10.9013 1.4378 14.0196 4.0364zm-16.5804-4.9635c-13.33 0-25.5364 6.4794-36.5975 18.9743l2.995 2.6514c10.5389-11.9051 21.7325-17.6257 33.6025-17.6257zm-33.8775 18.7171-30.30005-23.4-2.4449 3.1658 30.29995 23.4zm-29.99897-20.5214c17.81217-20.944 40.65077-31.39571 68.67647-31.39571v-4.00000144c-29.1743 0-53.1357 10.94821144-71.72353 32.80431144zm59.37647 132.4043c6.8485 0 12.6308 2.473 17.4594 7.487l2.8812-2.774c-5.5714-5.786-12.3891-8.713-20.3406-8.713zm17.5127 7.541c5.0143 4.828 7.4873 10.61 7.4873 17.459h4c0-7.951-2.927-14.769-8.7127-20.341zm7.4873 17.459c0 7.067-2.4872 13.059-7.5142 18.086l2.8284 2.828c5.773-5.773 8.6858-12.781 8.6858-20.914zm-7.5142 18.086c-4.8223 4.822-10.6125 7.214-17.4858 7.214v4c7.9267 0 14.7365-2.808 20.3142-8.386zm-17.4858 7.214c-6.8751 0-12.78-2.394-17.8127-7.241l-2.7746 2.882c5.7673 5.553 12.6624 8.359 20.5873 8.359zm-17.7594-7.187c-4.8356-5.022-7.2406-11.022-7.2406-18.113h-4c0 8.109 2.795 15.109 8.3594 20.887zm-7.2406-18.113c0-6.873 2.3919-12.663 7.2142-17.486l-2.8284-2.828c-5.5777 5.577-8.3858 12.387-8.3858 20.314zm7.2142-17.486c5.0384-5.038 10.9349-7.514 17.7858-7.514v-4c-7.9491 0-14.8526 2.924-20.6142 8.686z" fill="#3dd7ac"/></svg>

<svg width="142" height="223" viewBox="0 0 142 223" fill="none" xmlns="http://www.w3.org/2000/svg">
<path d="M109.1 8.89999L108.25 10.7105L108.272 10.7208L108.295 10.7306L109.1 8.89999ZM131.6 26.9L133.271 25.8008V25.8008L131.6 26.9ZM134.6 73.1L132.824 72.1812L132.811 72.2057L132.799 72.2305L134.6 73.1ZM124.4 87.2L123.062 85.7134L124.4 87.2ZM108.5 99.8L109.619 101.458L109.648 101.438L109.676 101.417L108.5 99.8ZM90.8 114.5L92.2831 115.842L92.2986 115.825L92.3137 115.807L90.8 114.5ZM85.1 138.5V140.5H87.1V138.5H85.1ZM41.9 138.5H39.9V140.5H41.9V138.5ZM46.1 105.5L44.2793 104.672L44.2734 104.685L44.2677 104.698L46.1 105.5ZM56.6 90.2L57.9379 91.6866L57.9418 91.6831L56.6 90.2ZM72.2 77.9L71.0906 76.2359L71.0663 76.2521L71.0425 76.269L72.2 77.9ZM85.4 67.4L86.8621 68.7646L85.4 67.4ZM83.9 43.7L82.6196 45.2364L82.64 45.2534L82.6607 45.2698L83.9 43.7ZM33.5 57.5L32.2775 59.0829L33.7578 60.2261L34.9975 58.8257L33.5 57.5ZM3.2 34.1L1.67647 32.8043L0.318172 34.4014L1.97755 35.6829L3.2 34.1ZM83 173.9L81.5594 175.287L81.5855 175.314L81.6127 175.341L83 173.9ZM83 212.3L81.5858 210.886L83 212.3ZM44.9 212.3L43.4594 213.687L43.4855 213.714L43.5127 213.741L44.9 212.3ZM44.9 173.9L46.3142 175.314L44.9 173.9ZM73.4 3.99999C87.1891 3.99999 98.7821 6.26625 108.25 10.7105L109.95 7.08952C99.8179 2.33372 87.6109 -1.14441e-05 73.4 -1.14441e-05V3.99999ZM108.295 10.7306C118.013 15.0069 125.18 20.7811 129.929 27.9992L133.271 25.8008C128.02 17.8189 120.187 11.5931 109.905 7.06936L108.295 10.7306ZM129.929 27.9992C134.712 35.2689 137.1 43.286 137.1 52.1H141.1C141.1 42.514 138.488 33.731 133.271 25.8008L129.929 27.9992ZM137.1 52.1C137.1 60.0602 135.644 66.7286 132.824 72.1812L136.376 74.0188C139.556 67.8714 141.1 60.5398 141.1 52.1H137.1ZM132.799 72.2305C130.09 77.8417 126.835 82.3177 123.062 85.7134L125.738 88.6866C129.965 84.8823 133.51 79.9583 136.401 73.9695L132.799 72.2305ZM123.062 85.7134C119.133 89.2499 113.893 93.4048 107.324 98.1825L109.676 101.417C116.307 96.5952 121.667 92.3501 125.738 88.6866L123.062 85.7134ZM107.381 98.1423C99.3173 103.585 93.2527 108.6 89.2864 113.193L92.3137 115.807C95.9473 111.6 101.683 106.815 109.619 101.458L107.381 98.1423ZM89.3169 113.158C85.12 117.797 83.1 123.809 83.1 131H87.1C87.1 124.591 88.88 119.603 92.2831 115.842L89.3169 113.158ZM83.1 131V138.5H87.1V131H83.1ZM85.1 136.5H41.9V140.5H85.1V136.5ZM43.9 138.5V129.2H39.9V138.5H43.9ZM43.9 129.2C43.9 119.986 45.2741 112.378 47.9323 106.302L44.2677 104.698C41.3259 111.422 39.9 119.614 39.9 129.2H43.9ZM47.9207 106.328C50.8442 99.896 54.2003 95.0504 57.9379 91.6866L55.2621 88.7134C50.9997 92.5496 47.3558 97.904 44.2793 104.672L47.9207 106.328ZM57.9418 91.6831C62.0675 87.9503 67.2016 83.8997 73.3575 79.531L71.0425 76.269C64.7984 80.7003 59.5325 84.8496 55.2582 88.7169L57.9418 91.6831ZM73.3094 79.5641C79.357 75.5324 83.906 71.9319 86.8621 68.7646L83.9379 66.0354C81.294 68.8681 77.0431 72.2676 71.0906 76.2359L73.3094 79.5641ZM86.8621 68.7646C90.0342 65.366 91.6 61.1665 91.6 56.3H87.6C87.6 60.2335 86.3658 63.434 83.9379 66.0354L86.8621 68.7646ZM91.6 56.3C91.6 50.3683 89.4795 45.5567 85.1393 42.1302L82.6607 45.2698C85.9205 47.8433 87.6 51.4317 87.6 56.3H91.6ZM85.1804 42.1635C81.0987 38.7622 75.4794 37.2 68.6 37.2V41.2C74.9206 41.2 79.5013 42.6378 82.6196 45.2364L85.1804 42.1635ZM68.6 37.2C55.27 37.2 43.0636 43.6794 32.0025 56.1743L34.9975 58.8257C45.5364 46.9206 56.73 41.2 68.6 41.2V37.2ZM34.7225 55.9171L4.42245 32.5171L1.97755 35.6829L32.2775 59.0829L34.7225 55.9171ZM4.72353 35.3957C22.5357 14.4517 45.3743 3.99999 73.4 3.99999V-1.14441e-05C44.2257 -1.14441e-05 20.2643 10.9482 1.67647 32.8043L4.72353 35.3957ZM64.1 167.8C70.9485 167.8 76.7308 170.273 81.5594 175.287L84.4406 172.513C78.8692 166.727 72.0515 163.8 64.1 163.8V167.8ZM81.6127 175.341C86.627 180.169 89.1 185.951 89.1 192.8H93.1C93.1 184.849 90.173 178.031 84.3873 172.459L81.6127 175.341ZM89.1 192.8C89.1 199.867 86.6128 205.859 81.5858 210.886L84.4142 213.714C90.1872 207.941 93.1 200.933 93.1 192.8H89.1ZM81.5858 210.886C76.7635 215.708 70.9733 218.1 64.1 218.1V222.1C72.0267 222.1 78.8365 219.292 84.4142 213.714L81.5858 210.886ZM64.1 218.1C57.2249 218.1 51.32 215.706 46.2873 210.859L43.5127 213.741C49.28 219.294 56.1751 222.1 64.1 222.1V218.1ZM46.3406 210.913C41.505 205.891 39.1 199.891 39.1 192.8H35.1C35.1 200.909 37.895 207.909 43.4594 213.687L46.3406 210.913ZM39.1 192.8C39.1 185.927 41.4919 180.137 46.3142 175.314L43.4858 172.486C37.9081 178.063 35.1 184.873 35.1 192.8H39.1ZM46.3142 175.314C51.3526 170.276 57.2491 167.8 64.1 167.8V163.8C56.1509 163.8 49.2474 166.724 43.4858 172.486L46.3142 175.314Z" fill="#3DD7AC"/>
</svg>
